icons/midnadark/actions/24/office-chart-polar-stacked.svg

<?xml version="1.0" encoding="UTF-8" standalone="no"?>
<!-- Created with Inkscape (http://www.inkscape.org/) -->

<svg
   xmlns:dc="http://purl.org/dc/elements/1.1/"
   xmlns:cc="http://creativecommons.org/ns#"
   xmlns:rdf="http://www.w3.org/1999/02/22-rdf-syntax-ns#"
   xmlns:svg="http://www.w3.org/2000/svg"
   xmlns="http://www.w3.org/2000/svg"
   xmlns:xlink="http://www.w3.org/1999/xlink"
   xmlns:sodipodi="http://sodipodi.sourceforge.net/DTD/sodipodi-0.dtd"
   xmlns:inkscape="http://www.inkscape.org/namespaces/inkscape"
   width="24"
   height="24"
   id="svg3869"
   version="1.1"
   inkscape:version="0.91 r13725"
   sodipodi:docname="office-chart-polar-stacked.svg">
  <defs
     id="defs3871">
    <clipPath
       id="clipPath4160"
       clipPathUnits="userSpaceOnUse">
      <rect
         y="1023.3622"
         x="7"
         height="1"
         width="1"
         id="rect4162"
         style="opacity:1;fill:#f2f2f2;fill-opacity:1;stroke:none;stroke-opacity:1" />
    </clipPath>
    <linearGradient
       gradientTransform="translate(0,-1.9999941)"
       inkscape:collect="always"
       xlink:href="#linearGradient4021-3"
       id="linearGradient4123"
       gradientUnits="userSpaceOnUse"
       x1="3"
       y1="1045.3622"
       x2="15"
       y2="1045.3622" />
    <linearGradient
       id="linearGradient4021-3">
      <stop
         id="stop4023-0"
         offset="0"
         style="stop-color:#b3b3b3;stop-opacity:1;" />
      <stop
         id="stop4025-2"
         offset="1"
         style="stop-color:#4d4d4d;stop-opacity:1;" />
    </linearGradient>
    <clipPath
       id="clipPath4160-8"
       clipPathUnits="userSpaceOnUse">
      <rect
         y="1023.3622"
         x="7"
         height="1"
         width="1"
         id="rect4162-9"
         style="opacity:1;fill:#f2f2f2;fill-opacity:1;stroke:none;stroke-opacity:1" />
    </clipPath>
  </defs>
  <sodipodi:namedview
     id="base"
     pagecolor="#ffffff"
     bordercolor="#666666"
     borderopacity="1.0"
     inkscape:pageopacity="0.0"
     inkscape:pageshadow="2"
     inkscape:zoom="22.627416"
     inkscape:cx="-3.1031463"
     inkscape:cy="10.286893"
     inkscape:document-units="px"
     inkscape:current-layer="layer1"
     showgrid="true"
     fit-margin-top="0"
     fit-margin-left="0"
     fit-margin-right="0"
     fit-margin-bottom="0"
     inkscape:window-width="1366"
     inkscape:window-height="633"
     inkscape:window-x="0"
     inkscape:window-y="33"
     inkscape:window-maximized="1"
     inkscape:showpageshadow="false"
     inkscape:snap-bbox="true"
     inkscape:object-nodes="true">
    <inkscape:grid
       type="xygrid"
       id="grid4132" />
    <sodipodi:guide
       position="4,18"
       orientation="18,0"
       id="guide4138" />
    <sodipodi:guide
       position="5,3"
       orientation="0,18"
       id="guide4140" />
    <sodipodi:guide
       position="20,2.0000174"
       orientation="-18,0"
       id="guide4142" />
    <sodipodi:guide
       position="2,21"
       orientation="0,-18"
       id="guide4144" />
    <sodipodi:guide
       position="3,19.000017"
       orientation="16,0"
       id="guide4146" />
    <sodipodi:guide
       position="2,4"
       orientation="0,16"
       id="guide4148" />
    <sodipodi:guide
       position="21,20"
       orientation="-16,0"
       id="guide4150" />
    <sodipodi:guide
       position="2,20"
       orientation="0,-16"
       id="guide4152" />
  </sodipodi:namedview>
  <metadata
     id="metadata3874">
    <rdf:RDF>
      <cc:Work
         rdf:about="">
        <dc:format>image/svg+xml</dc:format>
        <dc:type
           rdf:resource="http://purl.org/dc/dcmitype/StillImage" />
        <dc:title />
      </cc:Work>
    </rdf:RDF>
  </metadata>
  <g
     inkscape:label="Capa 1"
     inkscape:groupmode="layer"
     id="layer1"
     transform="translate(-326,-532.3622)">
    <g
       transform="translate(-224.28571,-74.28568)"
       id="layer1-8"
       inkscape:label="Capa 1"
       style="fill:#ffffff;fill-opacity:1">
      <path
         id="rect4219"
         transform="translate(551.28571,607.64788)"
         d="m 11,3 c -4.432,0 -8,3.568 -8,8 0,4.432 3.568,8 8,8 4.432,0 8,-3.568 8,-8 0,-4.432 -3.568,-8 -8,-8 z m 0,1 c 1.365929,0 2.634027,0.3931964 3.708984,1.0644531 0.90965,0.5680308 1.675633,1.3379768 2.240235,2.25 -0.564214,-0.910909 -1.330749,-1.6820716 -2.240235,-2.25 l -2.65039,4.2421875 c 0.519459,0.3248556 0.870291,0.8812664 0.923828,1.5273434 l 4.988281,-0.416015 C 17.924314,9.8515183 17.810808,9.3043686 17.638672,8.7851562 17.55529,8.5336517 17.457819,8.2904541 17.347656,8.0527344 c 0.10996,0.2374632 0.207744,0.4812728 0.291016,0.7324218 0.172255,0.5195246 0.285644,1.0663933 0.332031,1.6328128 C 17.986477,10.610583 18,10.803182 18,11 18,14.878 14.878,18 11,18 7.122,18 4,14.878 4,11 4,7.122 7.122,4 11,4 Z m 0,1 C 9.0985593,5 7.4122069,5.8783098 6.3144531,7.25 L 9.4433594,9.7539062 C 9.8092923,9.2970958 10.366524,9 11,9 l 0,-0.5 0,-2 0,-1.5 z m 5.957031,2.3261719 C 17.09085,7.5433107 17.212368,7.7678293 17.322266,8 17.212567,7.7684267 17.090569,7.542746 16.957031,7.3261719 Z M 9.5839844,12.416016 7.4609375,14.539062 C 8.3646875,15.442813 9.615,16 11,16 L 11,14.5 11,13 C 10.446,13 9.9454844,12.777516 9.5839844,12.416016 Z"
         style="opacity:1;fill:#ffffff;fill-opacity:1;stroke:none;stroke-width:2.79999995;stroke-miterlimit:4;stroke-dasharray:none;stroke-opacity:0.55026455"
         inkscape:connector-curvature="0" />
    </g>
  </g>
</svg>

<svg xmlns="http://www.w3.org/2000/svg" viewBox="0 0 24 24"><defs><clipPath><path fill="#f2f2f2" d="m7 1023.36h1v1h-1z"/></clipPath><clipPath><path fill="#f2f2f2" d="m7 1023.36h1v1h-1z"/></clipPath></defs><path transform="translate(1 .998)" d="m11 3c-4.432 0-8 3.568-8 8 0 4.432 3.568 8 8 8 4.432 0 8-3.568 8-8 0-4.432-3.568-8-8-8m0 1c1.366 0 2.634.393 3.709 1.064.91.568 1.676 1.338 2.24 2.25-.564-.911-1.331-1.682-2.24-2.25l-2.65 4.242c.519.325.87.881.924 1.527l4.988-.416c-.046-.566-.16-1.114-.332-1.633-.083-.252-.181-.495-.291-.732.11.237.208.481.291.732.172.52.286 1.066.332 1.633.016.193.029.385.029.582 0 3.878-3.122 7-7 7-3.878 0-7-3.122-7-7 0-3.878 3.122-7 7-7m0 1c-1.901 0-3.588.878-4.686 2.25l3.129 2.504c.366-.457.923-.754 1.557-.754v-.5-2-1.5zm5.957 2.326c.134.217.255.442.365.674-.11-.232-.232-.457-.365-.674m-7.373 5.09l-2.123 2.123c.904.904 2.154 1.461 3.539 1.461v-1.5-1.5c-.554 0-1.055-.222-1.416-.584" fill="#fff"/></svg>
